icons/Design/edit-2-fill.svg

<svg viewBox="0 0 24 24" xmlns="http://www.w3.org/2000/svg"><path d="M9.24264 18.9964H21V20.9964H3V16.7538L12.8995 6.85431L17.1421 11.0969L9.24264 18.9964ZM14.3137 5.44009L16.435 3.31877C16.8256 2.92825 17.4587 2.92825 17.8492 3.31877L20.6777 6.1472C21.0682 6.53772 21.0682 7.17089 20.6777 7.56141L18.5563 9.68273L14.3137 5.44009Z"/></svg>

<svg xmlns="http://www.w3.org/2000/svg" viewBox="0 0 24 24">
    <g>
        <path fill="none" d="M0 0h24v24H0z"/>
        <path d="M9.243 19H21v2H3v-4.243l9.9-9.9 4.242 4.244L9.242 19zm5.07-13.556l2.122-2.122a1 1 0 0 1 1.414 0l2.829 2.829a1 1 0 0 1 0 1.414l-2.122 2.121-4.242-4.242z"/>
    </g>
</svg>
